icon-themes/sifr_svg/cmd/lc_accent1cellstyles.svg

<svg viewBox="0 0 24 24" xmlns="http://www.w3.org/2000/svg"><path d="m1 2v19h22v-19zm6 2h8c2.761424 0 5 2.2385763 5 5v10h-11.5c-2.4852814 0-4.5-2.014719-4.5-4.5s2.0147186-4.5 4.5-4.5h8.5v-1c0-1.1045695-.895431-2-2-2h-8zm1.5 9c-.8284271 0-1.5.671573-1.5 1.5s.6715729 1.5 1.5 1.5h8.5v-3z" fill="#555753"/></svg>

<svg xmlns="http://www.w3.org/2000/svg" viewBox="0 0 24 24">
  <path
     style="opacity:1;fill:#555753"
     d="M 1 2 L 1 21 L 23 21 L 23 2 L 1 2 z M 7 4 L 15 4 C 17.761424 4 20 6.2385763 20 9 L 20 19 L 8.5 19 C 6.0147186 19 4 16.985281 4 14.5 C 4 12.014719 6.0147186 10 8.5 10 L 17 10 L 17 9 C 17 7.8954305 16.104569 7 15 7 L 7 7 L 7 4 z M 8.5 13 C 7.6715729 13 7 13.671573 7 14.5 C 7 15.328427 7.6715729 16 8.5 16 L 17 16 L 17 13 L 8.5 13 z "
     />
</svg>
